resources/svg/brands/chrome.svg

<svg fill="currentColor" xmlns="http://www.w3.org/2000/svg" viewBox="0 0 512 512"><!--! Font Awesome Free 7.0.1 by @fontawesome - https://fontawesome.com License - https://fontawesome.com/license/free (Icons: CC BY 4.0, Fonts: SIL OFL 1.1, Code: MIT License) Copyright 2025 Fonticons, Inc. --><path fill="currentColor" d="M0 256c0-46.6 12.5-90.4 34.3-128.9L144.1 318.3c21.9 39.2 63.8 65.7 111.9 65.7 14.3 0 27.1-2.3 40.8-6.6L220.5 509.6C95.9 492.3 0 385.3 0 256zm365.1 65.6c12.3-19.2 18.9-42.5 18.9-65.6 0-38.2-16.8-72.5-43.3-96l152.7 0c12 29.6 18.6 62.1 18.6 96 0 141.4-114.6 255.1-256 256L365.1 321.6zM477.8 128L256 128c-62.9 0-113.7 44.1-125.5 102.7L54.2 98.5C101 38.5 174 0 256 0 350.8 0 433.5 51.5 477.8 128zM344 256a88 88 0 1 1 -176 0 88 88 0 1 1 176 0z"/></svg>

<svg fill="currentColor" xmlns="http://www.w3.org/2000/svg" viewBox="0 0 512 512"><!--! Font Awesome Free 6.7.2 by @fontawesome - https://fontawesome.com License - https://fontawesome.com/license/free (Icons: CC BY 4.0, Fonts: SIL OFL 1.1, Code: MIT License) Copyright 2024 Fonticons, Inc. --><path d="M0 256C0 209.4 12.47 165.6 34.27 127.1L144.1 318.3C166 357.5 207.9 384 256 384C270.3 384 283.1 381.7 296.8 377.4L220.5 509.6C95.9 492.3 0 385.3 0 256zM365.1 321.6C377.4 302.4 384 279.1 384 256C384 217.8 367.2 183.5 340.7 160H493.4C505.4 189.6 512 222.1 512 256C512 397.4 397.4 511.1 256 512L365.1 321.6zM477.8 128H256C193.1 128 142.3 172.1 130.5 230.7L54.19 98.47C101 38.53 174 0 256 0C350.8 0 433.5 51.48 477.8 128V128zM168 256C168 207.4 207.4 168 256 168C304.6 168 344 207.4 344 256C344 304.6 304.6 344 256 344C207.4 344 168 304.6 168 256z"/></svg>
